X:1
T:La Gazza Ladra
T:Giaochino Rossini Engraved by R. L. Roy
T:Excerpt 1 Overture: [C] to 23 measures after [C] (mm. 115-138)
T:Trombone 1
T:www.brassexcerpts.com This work is made available under the Creative Commons CC0 1.0 Universal Public Domain Dedication. You can copy, modify, distribute and perform the work, even for commercial purposes, all without asking permission.
Z:www.brassexcerpts.com
Z:This work is made available under the Creative Commons CC0 1.0 Universal Public Domain Dedication.
Z:You can copy, modify, distribute and perform the work, even for commercial purposes, all without asking permission.
L:1/8
Q:1/4=180
M:3/4
K:G
V:1 bass nm="Piano" snm="Pno."
V:1
!f!"^C" E4 z2 |"_marc." E,2 ^G,2 B,2 | E2- E^D^CB, | A,^G,F,E,^D,^C, | B,,4 z2 | %5
!<(! B,,2 ^D,2 F,2!<)! | B,2- B,^CB,A, | ^G,F,E,^D,^C,B,, | E,4 z2 |!<(! E,2 =G,2 B,2!<)! | %10
 E2- E=D=CB, | A,=G,A,G,F,E, | =D,4 z2 |!<(! D,2 F,2 A,2!<)! | D2- DED=C | B,A,G,F,E,D, | %16
 G,2 z2 G,2 | A,2 z2 A,2 | B,2 z2 B,2 | C2 (^C4 | D2) z2 B,2 | =C2 z2 A,2 | B,2 G,2 E,2 | C,2 z4 |] %24

